X: 16
T: Hultklppens d-moll polska
O: Hlsingland, Bergsj
S: efter Per Hult Alcn, Hultklppen
R: Polska
Z: Hkan Lidn, 2008-09-28
M: 3/4
L: 1/8
K: Ddor
AB/^c/ d2 A2 | fe/d/ e2 A2 | f/e/f/g/ a/g/f/e/ g/f/e/d/ | f/e/d/^c/ dA FD | AB/^c/ d2 A2 |
fe/d/ e2 A2 | f/e/f/g/ a/g/f/e/ g/f/e/d/ | f/e/d/^c/ d4 :: a>a fa fa | _b/a/g/f/ eg e>g |
gf/e/ df a>f | fe/d/ ^c/d/e/c/ A2 | a>a fa fa | _b/a/g/f/ eg e>g |
gf/e/ df a>f | fe/d/ ^c/d/e/c/ A2 | AB/^c/ df ea | f/e/d/^c/ d4 :|
